icon-svg/reolink-820.svg

<svg xmlns="http://www.w3.org/2000/svg" fill="#44739e" viewBox="0 0 24 24"><path d="M15.108 18.325a6.85 6.85 0 0 1-1.4-1.35 3.26 3.26 0 0 1-.395-.662c-.18-.347-.294-.612-.315-.662a4.8 4.8 0 0 0-2.358-2.119 5.14 5.14 0 0 0-1.309-.368 2.8 2.8 0 0 0-.974-.04 3.13 3.13 0 0 0-.739.24c-.076.034-.315.146-.789.37a1.023 1.023 0 0 1-.51.134 1.17 1.17 0 0 1-.309-.072 3.12 3.12 0 0 0-.72-.17 1.444 1.444 0 0 0-1.043.4 1.785 1.785 0 0 0-.677 1.05 3.26 3.26 0 0 0-.15 1.122c.018.5.181.613.55 1.069a36.45 36.45 0 0 0 3.486 3.445 6.47 6.47 0 0 0 2.151.838c.328.056 4.83-.019 5.029-.09.411-.149.573-.659.675-.812a1.46 1.46 0 0 0 .222-.643c.067-.579-.091-1.465-.425-1.68m-1.243 2.864-2.026.057a7.251 7.251 0 0 1-6.009-2.454l-1.981-2.13a1.152 1.152 0 0 1 .771-1.572l2.48-.13c3.053-.114 3.88.493 5.276 1.9l2.289 2.307a1.187 1.187 0 0 1-.8 2.022m-1.797-4.104a6.335 6.335 0 0 0-4.767-1.8l-2.232.12a.886.886 0 0 0-.592 1.513l2.1 2.065a6.868 6.868 0 0 0 5.011 1.959l1.827-.052a1.039 1.039 0 0 0 .72-1.779zm-2.143.8c-.114.269-.434.42-.907.425h-.056a4.44 4.44 0 0 1-2.779-1.189c-.337-.348-.46-.69-.35-.965s.421-.417.88-.43a4.436 4.436 0 0 1 2.839 1.164c.358.364.491.717.373.998zm7.175-4.669a12.5 12.5 0 0 0-.83-2.262 7.7 7.7 0 0 0-.812-1.5A6.93 6.93 0 0 0 13.9 7.936a12.614 12.614 0 0 0-6.554-1.99 17.5 17.5 0 0 0-2.381.03 5.34 5.34 0 0 0-1.633.38 1.6 1.6 0 0 0-.8.562 1.19 1.19 0 0 0-.146.554 1.49 1.49 0 0 0 .1.613c.257.592 1.763 3.689 1.763 3.689a2.48 2.48 0 0 1 .129-.9s-.52-1.2-.575-1.389a4.94 4.94 0 0 1-.173-1.32 2.37 2.37 0 0 1 .126-.642 1.43 1.43 0 0 1 .608-.57 2.8 2.8 0 0 1 1.151-.328c.178-.02 1.3-.074 1.913-.056a14.4 14.4 0 0 1 2.809.438 9.29 9.29 0 0 1 3.258 1.469 8.22 8.22 0 0 1 1.457 1.4 9.1 9.1 0 0 1 1.684 3.609c.31.973.828 3.037.828 3.037.1.242.656 1.466.656 1.466a2.5 2.5 0 0 0 .588-.01A10.9 10.9 0 0 1 17.9 16.3c-.349-.941-.375-1.564-.8-3.084m4.823-8.4c-5.492-1.031-16.037-.768-19.864.2l.128 1.969c.256.078-.225-.529.55-1.02a9.05 9.05 0 0 1 3.625-.774 17.22 17.22 0 0 1 6.054.946 9.17 9.17 0 0 1 2.216 1.178 8.13 8.13 0 0 1 1.536 1.565 8 8 0 0 1 1.1 2.188 12.6 12.6 0 0 1 .667 2.168 26.9 26.9 0 0 0 .654 2.7c.28.892.36 1.3.7 1.324.55.032 1.3-2.865 1.663-4.245 1.445-5.524.974-8.2.974-8.2zM17.139 17.14a3.53 3.53 0 0 1-.556-1.452c-.15-.552-.35-1.218-.854-2.7a8.6 8.6 0 0 0-1-2.06A8.79 8.79 0 0 0 12.4 8.577a9.9 9.9 0 0 0-2.035-.92A10.17 10.17 0 0 0 8.309 7.2c-1.083-.105-1.37-.118-1.892.255-.594.425-2.2 3.2-2.145 6.351 0 .077.283-.349.556-.468a1.33 1.33 0 0 1 .64-.085c.612.035.7.3 1.052.217.245-.056.228-.19.61-.367a5.7 5.7 0 0 1 1.714-.493 5.59 5.59 0 0 1 2.949.894 5.07 5.07 0 0 1 .828.63 3.88 3.88 0 0 1 .78.937c.328.58.265.9.684 1.424a2.4 2.4 0 0 0 .31.33 3.38 3.38 0 0 0 .749.451c.345.191.894.494.933.91.025.265-.175.39-.218.975-.017.237.012.27.03.282.131.1.571-.316 1.444-1.145.21-.2.284-.229.225-.413a1.83 1.83 0 0 0-.419-.745m-8.609-.068a1.922 1.922 0 0 0-1.16-.459h-.013c-.139 0-.239.041-.261.1s.027.15.125.247a1.9 1.9 0 0 0 1.15.464c.188 0 .275-.045.294-.1s-.008-.135-.135-.257ZM21.983 4.056c-.021-.542.017-1.6.017-1.6L2 2.43l.106 1.845c2.147-.775 12.53-1.67 19.877-.219M6.746 16.024h-.027c-.328.008-.55.1-.61.246s.044.4.287.647a4.167 4.167 0 0 0 2.573 1.1c.364 0 .62-.087.686-.244s-.05-.409-.309-.67a4.127 4.127 0 0 0-2.6-1.079M8.83 17.4c-.031.076-.129.2-.437.207h-.024a2.072 2.072 0 0 1-1.269-.52c-.212-.209-.2-.364-.166-.44s.126-.2.424-.207h.015a2.086 2.086 0 0 1 1.285.5c.22.219.202.379.172.46"/></svg>

<svg xmlns="http://www.w3.org/2000/svg" fill="#44739e" width="24" height="24" version="1.1" viewBox="0 0 24 24"><path d="m 15.108,18.325 a 6.85,6.85 0 0 1 -1.4,-1.35 3.256,3.256 0 0 1 -0.395,-0.662 c -0.18,-0.347 -0.294,-0.612 -0.315,-0.662 A 4.8,4.8 0 0 0 10.64,13.532 5.144,5.144 0 0 0 9.331,13.164 2.8,2.8 0 0 0 8.357,13.124 3.132,3.132 0 0 0 7.618,13.364 c -0.076,0.034 -0.315,0.146 -0.789,0.37 a 1.023,1.023 0 0 1 -0.51,0.134 1.168,1.168 0 0 1 -0.309,-0.072 3.119,3.119 0 0 0 -0.72,-0.17 1.444,1.444 0 0 0 -1.043,0.4 1.785,1.785 0 0 0 -0.677,1.05 3.255,3.255 0 0 0 -0.15,1.122 c 0.018,0.5 0.181,0.613 0.55,1.069 a 36.45,36.45 0 0 0 3.486,3.445 6.472,6.472 0 0 0 2.151,0.838 c 0.328,0.056 4.83,-0.019 5.029,-0.09 0.411,-0.149 0.573,-0.659 0.675,-0.812 a 1.463,1.463 0 0 0 0.222,-0.643 C 15.6,19.426 15.442,18.54 15.108,18.325 Z m -1.243,2.864 v 0 l -2.026,0.057 A 7.251,7.251 0 0 1 5.83,18.792 L 3.849,16.662 A 1.152,1.152 0 0 1 4.62,15.09 L 7.1,14.96 c 3.053,-0.114 3.88,0.493 5.276,1.9 l 2.289,2.307 a 1.187,1.187 0 0 1 -0.8,2.022 z m -1.797,-4.104 a 6.335,6.335 0 0 0 -4.767,-1.8 l -2.232,0.12 a 0.886,0.886 0 0 0 -0.592,1.513 l 2.1,2.065 a 6.868,6.868 0 0 0 5.011,1.959 l 1.827,-0.052 a 1.039,1.039 0 0 0 0.72,-1.779 z m -2.143,0.8 v 0 C 9.811,18.154 9.491,18.305 9.018,18.31 H 8.962 A 4.441,4.441 0 0 1 6.183,17.121 c -0.337,-0.348 -0.46,-0.69 -0.35,-0.965 0.11,-0.275 0.421,-0.417 0.88,-0.43 a 4.436,4.436 0 0 1 2.839,1.164 c 0.358,0.364 0.491,0.717 0.373,0.998 z M 17.1,13.216 v 0 A 12.488,12.488 0 0 0 16.27,10.954 7.7,7.7 0 0 0 15.458,9.454 6.93,6.93 0 0 0 13.9,7.936 12.614,12.614 0 0 0 7.346,5.946 a 17.52,17.52 0 0 0 -2.381,0.03 5.339,5.339 0 0 0 -1.633,0.38 1.6,1.6 0 0 0 -0.8,0.562 1.192,1.192 0 0 0 -0.146,0.554 1.492,1.492 0 0 0 0.1,0.613 c 0.257,0.592 1.763,3.689 1.763,3.689 a 2.481,2.481 0 0 1 0.129,-0.9 c 0,0 -0.52,-1.2 -0.575,-1.389 A 4.943,4.943 0 0 1 3.63,8.165 2.374,2.374 0 0 1 3.756,7.523 1.43,1.43 0 0 1 4.364,6.953 2.8,2.8 0 0 1 5.515,6.625 c 0.178,-0.02 1.3,-0.074 1.913,-0.056 a 14.41,14.41 0 0 1 2.809,0.438 9.286,9.286 0 0 1 3.258,1.469 8.219,8.219 0 0 1 1.457,1.4 9.1,9.1 0 0 1 1.684,3.609 c 0.31,0.973 0.828,3.037 0.828,3.037 0.1,0.242 0.656,1.466 0.656,1.466 A 2.514,2.514 0 0 0 18.708,17.978 10.922,10.922 0 0 1 17.9,16.3 c -0.349,-0.941 -0.375,-1.564 -0.8,-3.084 z m 4.823,-8.4 C 16.431,3.785 5.886,4.048 2.059,5.016 L 2.187,6.985 C 2.443,7.063 1.962,6.456 2.737,5.965 a 9.053,9.053 0 0 1 3.625,-0.774 17.217,17.217 0 0 1 6.054,0.946 9.171,9.171 0 0 1 2.216,1.178 8.133,8.133 0 0 1 1.536,1.565 8,8 0 0 1 1.1,2.188 12.608,12.608 0 0 1 0.667,2.168 26.853,26.853 0 0 0 0.654,2.7 c 0.28,0.892 0.36,1.3 0.7,1.324 0.55,0.032 1.3,-2.865 1.663,-4.245 1.445,-5.524 0.974,-8.2 0.974,-8.2 z M 17.139,17.14 v 0 a 3.531,3.531 0 0 1 -0.556,-1.452 c -0.15,-0.552 -0.35,-1.218 -0.854,-2.7 a 8.59,8.59 0 0 0 -1,-2.06 A 8.792,8.792 0 0 0 12.4,8.577 9.913,9.913 0 0 0 10.365,7.657 10.168,10.168 0 0 0 8.309,7.2 C 7.226,7.095 6.939,7.082 6.417,7.455 c -0.594,0.425 -2.2,3.2 -2.145,6.351 0,0.077 0.283,-0.349 0.556,-0.468 a 1.33,1.33 0 0 1 0.64,-0.085 c 0.612,0.035 0.7,0.3 1.052,0.217 0.245,-0.056 0.228,-0.19 0.61,-0.367 a 5.694,5.694 0 0 1 1.714,-0.493 5.588,5.588 0 0 1 2.949,0.894 5.067,5.067 0 0 1 0.828,0.63 3.878,3.878 0 0 1 0.78,0.937 c 0.328,0.58 0.265,0.9 0.684,1.424 a 2.422,2.422 0 0 0 0.31,0.33 3.376,3.376 0 0 0 0.749,0.451 c 0.345,0.191 0.894,0.494 0.933,0.91 0.025,0.265 -0.175,0.39 -0.218,0.975 -0.017,0.237 0.012,0.27 0.03,0.282 0.131,0.1 0.571,-0.316 1.444,-1.145 0.21,-0.2 0.284,-0.229 0.225,-0.413 A 1.831,1.831 0 0 0 17.139,17.14 Z M 8.53,17.072 A 1.922,1.922 0 0 0 7.37,16.613 H 7.357 c -0.139,0 -0.239,0.041 -0.261,0.1 -0.022,0.059 0.027,0.15 0.125,0.247 a 1.9,1.9 0 0 0 1.15,0.464 c 0.188,0 0.275,-0.045 0.294,-0.1 C 8.684,17.269 8.657,17.189 8.53,17.067 Z M 21.983,4.056 C 21.962,3.514 22,2.456 22,2.456 L 2,2.43 2.106,4.275 C 4.253,3.5 14.636,2.605 21.983,4.056 Z M 6.746,16.024 H 6.719 c -0.328,0.008 -0.55,0.1 -0.61,0.246 -0.06,0.146 0.044,0.4 0.287,0.647 a 4.167,4.167 0 0 0 2.573,1.1 c 0.364,0 0.62,-0.087 0.686,-0.244 0.066,-0.157 -0.05,-0.409 -0.309,-0.67 a 4.127,4.127 0 0 0 -2.6,-1.079 z M 8.83,17.4 C 8.799,17.476 8.701,17.6 8.393,17.607 H 8.369 A 2.072,2.072 0 0 1 7.1,17.087 C 6.888,16.878 6.9,16.723 6.934,16.647 6.968,16.571 7.06,16.447 7.358,16.44 h 0.015 a 2.086,2.086 0 0 1 1.285,0.5 c 0.22,0.219 0.202,0.379 0.172,0.46 z"/></svg>
